src/static/logos/dropzone.svg

<?xml version="1.0" encoding="UTF-8" standalone="no"?>
<svg width="256px" height="256px" viewBox="0 0 256 256" version="1.1" xmlns="http://www.w3.org/2000/svg" xmlns:xlink="http://www.w3.org/1999/xlink" preserveAspectRatio="xMidYMid">
	<g fill="#028BF4">
		<path d="M128,42.6666667 C80.8711111,42.6666667 42.6666667,80.8711111 42.6666667,128 L42.6666667,213.333333 L64,213.333333 L128,213.333333 C175.128889,213.333333 213.333333,175.128889 213.333333,128 C213.333333,80.8711111 175.128889,42.6666667 128,42.6666667 L128,42.6666667 L128,42.6666667 Z M128,192 L64,192 L64,128 C64,92.6542222 92.6542222,64 128,64 C163.345778,64 192,92.6542222 192,128 C192,163.345778 163.349333,192 128,192 L128,192 L128,192 Z"></path>
		<path d="M128,85.3333333 C104.437333,85.3333333 85.3333333,104.437333 85.3333333,128 L85.3333333,170.666667 L106.666667,170.666667 L128,170.666667 C151.562667,170.666667 170.666667,151.562667 170.666667,128 C170.666667,104.437333 151.562667,85.3333333 128,85.3333333 L128,85.3333333 L128,85.3333333 Z M128,149.333333 L106.666667,149.333333 L106.666667,128 C106.666667,116.220444 116.220444,106.666667 128,106.666667 C139.779556,106.666667 149.333333,116.220444 149.333333,128 C149.333333,139.779556 139.783111,149.333333 128,149.333333 L128,149.333333 L128,149.333333 Z"></path>
		<path d="M128,0 L0,0 L0,256 L128,256 C198.691556,256 256,198.691556 256,128 C256,57.3084444 198.691556,0 128,0 L128,0 L128,0 Z M128,234.666667 L21.3333333,234.666667 L21.3333333,170.666667 L21.3333333,128 C21.3333333,69.0915556 69.0915556,21.3333333 128,21.3333333 C186.908444,21.3333333 234.666667,69.0915556 234.666667,128 C234.666667,186.908444 186.912,234.666667 128,234.666667 L128,234.666667 L128,234.666667 Z"></path>
	</g>
</svg>

<svg width="256" height="256" xmlns="http://www.w3.org/2000/svg" preserveAspectRatio="xMidYMid"><g fill="#028BF4"><path d="M128 42.667c-47.129 0-85.333 38.204-85.333 85.333v85.333H128c47.129 0 85.333-38.204 85.333-85.333S175.13 42.667 128 42.667zM128 192H64v-64c0-35.346 28.654-64 64-64 35.346 0 64 28.654 64 64 0 35.346-28.65 64-64 64z"/><path d="M128 85.333c-23.563 0-42.667 19.104-42.667 42.667v42.667H128c23.563 0 42.667-19.104 42.667-42.667 0-23.563-19.104-42.667-42.667-42.667zm0 64h-21.333V128c0-11.78 9.553-21.333 21.333-21.333 11.78 0 21.333 9.553 21.333 21.333 0 11.78-9.55 21.333-21.333 21.333z"/><path d="M128 0H0v256h128c70.692 0 128-57.308 128-128C256 57.308 198.692 0 128 0zm0 234.667H21.333V128C21.333 69.092 69.092 21.333 128 21.333S234.667 69.092 234.667 128 186.912 234.667 128 234.667z"/></g></svg>
